polaris-icons/icons/newicons/CurrencyConvertMinor.svg

<svg width="20" height="20" viewBox="0 0 20 20" fill="none" xmlns="http://www.w3.org/2000/svg">
<path d="M10.25 6.875C10.25 6.46079 10.5858 6.125 11 6.125H16.0142L15.2038 5.26403C14.92 4.9624 14.9343 4.48774 15.236 4.20385C15.5376 3.91996 16.0123 3.93435 16.2961 4.23598L18.2962 6.36098C18.5679 6.64977 18.5679 7.10024 18.2962 7.38903L16.2961 9.51403C16.0123 9.81566 15.5376 9.83004 15.236 9.54615C14.9343 9.26226 14.92 8.78761 15.2038 8.48598L16.0142 7.625H11C10.5858 7.625 10.25 7.28922 10.25 6.875Z" fill="black"/>
<path d="M1.5 8.3751C1.5 7.06337 2.56336 6 3.87509 6H4.25V5.25C4.25 4.83579 4.58579 4.5 5 4.5C5.41421 4.5 5.75 4.83579 5.75 5.25V6H6.77941C7.19363 6 7.52941 6.33579 7.52941 6.75C7.52941 7.16422 7.19363 7.5 6.77941 7.5H3.87509C3.39179 7.5 3 7.8918 3 8.3751C3 8.8584 3.39179 9.25019 3.87509 9.25019H5.1545C6.46613 9.25019 7.52941 10.3135 7.52941 11.6251C7.52941 12.9367 6.46613 14 5.1545 14H4.75V14.75C4.75 15.1642 4.41421 15.5 4 15.5C3.58579 15.5 3.25 15.1642 3.25 14.75V14H2.25C1.83579 14 1.5 13.6642 1.5 13.25C1.5 12.8358 1.83579 12.5 2.25 12.5H5.1545C5.6377 12.5 6.02941 12.1083 6.02941 11.6251C6.02941 11.1419 5.6377 10.7502 5.1545 10.7502H3.87509C2.56337 10.7502 1.5 9.68682 1.5 8.3751Z" fill="black"/>
<path d="M17.75 13.875C18.1642 13.875 18.5 13.5392 18.5 13.125C18.5 12.7108 18.1642 12.375 17.75 12.375H12.7358L13.5462 11.514C13.83 11.2124 13.8157 10.7377 13.514 10.4539C13.2124 10.17 12.7377 10.1844 12.4539 10.486L10.4539 12.611C10.182 12.8998 10.1821 13.3502 10.4539 13.639L12.4538 15.764C12.7377 16.0657 13.2124 16.08 13.514 15.7962C13.8157 15.5123 13.83 15.0376 13.5462 14.736L12.7358 13.875H17.75Z" fill="black"/>
</svg>

<svg viewBox="0 0 20 20" fill="none" xmlns="http://www.w3.org/2000/svg"><path d="M10.25 6.875a.75.75 0 0 1 .75-.75h5.014l-.81-.861a.75.75 0 0 1 1.092-1.028l2 2.125a.75.75 0 0 1 0 1.028l-2 2.125a.75.75 0 1 1-1.092-1.028l.81-.861h-5.014a.75.75 0 0 1-.75-.75Z" fill="#000"/><path d="M1.5 8.375a2.375 2.375 0 0 1 2.375-2.375h.375v-.75a.75.75 0 0 1 1.5 0v.75h1.03a.75.75 0 1 1 0 1.5h-2.905a.875.875 0 0 0 0 1.75h1.28a2.375 2.375 0 0 1 0 4.75h-.405v.75a.75.75 0 0 1-1.5 0v-.75h-1a.75.75 0 0 1 0-1.5h2.904a.875.875 0 1 0 0-1.75h-1.279a2.375 2.375 0 0 1-2.375-2.375Z" fill="#000"/><path d="M17.75 13.875a.75.75 0 0 0 0-1.5h-5.014l.81-.861a.75.75 0 0 0-1.092-1.028l-2 2.125a.75.75 0 0 0 0 1.028l2 2.125a.75.75 0 0 0 1.092-1.028l-.81-.861h5.014Z" fill="#000"/></svg>
